X:103
%%etbk:tnset id:36,pos:3,rep:3x,ant:
%%etbk:wsite http://www.thesession.org/tunes/display/176
%%etbk:video src:ytube,cde:5_wkF6TO4h0,desc:second tune
%%etbk:skill ?
%%etbk:pldat 2013-11-06T17:36,2013-10-23T18:51,2013-10-21T17:54,2013-10-20T14:05,2013-09-12T18:12,2013-08-29T16:00,2013-08-26T18:13,2013-05-20T15:25,2013-05-05T14:08,2013-05-01T16:11
T: Sandmount
T: Mick Hand's
Z: Piano Box Version by Martin Fleischmann
H: Created 2013-02-19 /  Last Modified 2013-02-19
M: 4/4
L: 1/8
R: reel
K: Ador
|:"am"!5!e!1!AA!2!G !3!ABAG | "G"!1!E!2!G!1!D!2!G !1!E!2!G!1!D!2!G | "am"!1!E!3!AA!2!G !1!A2 !2!(3Bc!4!d | "em"!2!e!4!g!3!f!5!a !4!ged!4!g:|
"am"!1!e!3!aag !3!a2!4!b!3!a | "G"!4!gede !4!ged!4!g | "am"!1!e!3!aag !3!aaga | "em"!4!bagb !3!aaag |
"am"!1!e!3!aag !3!a2!4!b!3!a | "G"!4!ge!1!d!2!B !1!de!3!g!4!a | !5!bg!4!af !4!gfed | !2!eeed !2!!5!e4 ||
